X: 1
T: In Memory Of Coleman
R: reel
M: 4/4
L: 1/8
K: Gmin
F2 |: DcBd cBGF|DFFF GFDF|GABc dfga|(3bag gf dgga|
(3bag gf gfdc |(3 Bcd BG FDCD|FGAB c2 c2|BcBc ABGG :|
|: Bf f2 a2 f2|BBcB AF F2|B2 (3dcB f2 a2|FGAd BG G2|
fBfB BBfB|BBcB AF F2|GABc dbag|fd (3cBA BG G2 :|


Tune 619	Setting 29638

